src/components/stable/gux-icon/icons/toolbar-phone-disable.svg

<svg viewBox="0 0 16 16" xmlns="http://www.w3.org/2000/svg"><g clip-path="url(#clip0_497_7127)"><path d="M13.6402 9.20999C12.9302 8.68999 11.9902 8.58999 11.2002 8.95999L10.1602 9.44999C9.69018 9.66999 9.13018 9.58999 8.74018 9.24999C8.58018 9.09999 8.42018 8.93999 8.26018 8.79999L15.7702 1.28999C16.0602 0.999986 16.0602 0.519986 15.7702 0.229986C15.4802 -0.0600139 15.0002 -0.0600139 14.7102 0.229986L0.210176 14.73C-0.0798242 15.02 -0.0798242 15.5 0.210176 15.79C0.370176 15.92 0.560176 16 0.750176 16C0.940176 16 1.13018 15.93 1.28018 15.78L5.06018 12C6.64018 13.48 8.39018 14.7 10.2902 15.62C10.8102 15.87 11.3602 15.99 11.9102 15.99C13.0602 15.99 14.2002 15.47 14.9502 14.51L15.4102 13.92C16.2202 12.88 16.1902 11.55 15.3402 10.68C14.8002 10.14 14.2302 9.63999 13.6402 9.20999ZM14.2202 13L13.7602 13.59C13.0902 14.45 11.9002 14.74 10.9402 14.28C9.19018 13.43 7.58018 12.31 6.12018 10.95L7.20018 9.85999C7.38018 10.03 7.55018 10.2 7.74018 10.37C8.58018 11.11 9.77017 11.28 10.7802 10.81L11.8202 10.32C12.1202 10.18 12.4702 10.22 12.7402 10.41C13.2702 10.8 13.7802 11.24 14.2502 11.73C14.5802 12.05 14.5602 12.56 14.2202 13Z"/><path d="M2.78018 9.54999C2.93018 9.73999 3.15018 9.83999 3.37018 9.83999C3.53018 9.83999 3.70018 9.78999 3.83018 9.67999C4.16018 9.41999 4.21018 8.94999 3.96018 8.62999C3.09018 7.50999 2.34018 6.30999 1.73018 5.05999C1.27018 4.09999 1.56018 2.91999 2.42018 2.23999L3.12018 1.69999C3.47018 1.41999 3.97018 1.44999 4.27018 1.73999C4.75018 2.20999 5.20018 2.71999 5.59018 3.25999C5.86018 3.61999 5.75018 4.03999 5.62018 4.31999L5.20018 5.21999C4.96018 5.73999 4.89018 6.29999 4.98018 6.85999C5.05018 7.26999 5.44018 7.54999 5.84018 7.47999C6.25018 7.40999 6.53018 7.02999 6.46018 6.61999C6.42018 6.35999 6.45018 6.08999 6.56018 5.84999L6.98018 4.94999C7.41018 4.03999 7.34018 3.09999 6.80018 2.35999C6.36018 1.76999 5.86018 1.19999 5.32018 0.669986C4.48018 -0.150014 3.14018 -0.220014 2.20018 0.519986L1.50018 1.05999C0.0801759 2.15999 -0.389824 4.11999 0.380176 5.71999C1.04018 7.05999 1.84018 8.34999 2.78018 9.54999Z"/></g><defs><clipPath><rect/></clipPath></defs></svg>

<svg xmlns="http://www.w3.org/2000/svg" xmlns:xlink="http://www.w3.org/1999/xlink" x="0px" y="0px" viewBox="0 0 16 16" xml:space="preserve"><path d="M13.64,9.21c-0.71-0.52-1.65-0.62-2.44-0.25l-1.04,0.49c-0.47,0.22-1.03,0.14-1.42-0.2
		C8.58,9.1,8.42,8.94,8.26,8.8l7.51-7.51c0.29-0.29,0.29-0.77,0-1.06s-0.77-0.29-1.06,0l-14.5,14.5c-0.29,0.29-0.29,0.77,0,1.06
		C0.37,15.92,0.56,16,0.75,16s0.38-0.07,0.53-0.22L5.06,12c1.58,1.48,3.33,2.7,5.23,3.62c0.52,0.25,1.07,0.37,1.62,0.37
		c1.15,0,2.29-0.52,3.04-1.48l0.46-0.59c0.81-1.04,0.78-2.37-0.07-3.24C14.8,10.14,14.23,9.64,13.64,9.21z M14.22,13l-0.46,0.59
		c-0.67,0.86-1.86,1.15-2.82,0.69c-1.75-0.85-3.36-1.97-4.82-3.33L7.2,9.86c0.18,0.17,0.35,0.34,0.54,0.51
		c0.84,0.74,2.03,0.91,3.04,0.44l1.04-0.49c0.3-0.14,0.65-0.1,0.92,0.09c0.53,0.39,1.04,0.83,1.51,1.32
		C14.58,12.05,14.56,12.56,14.22,13z"/><path d="M2.78,9.55c0.15,0.19,0.37,0.29,0.59,0.29c0.16,0,0.33-0.05,0.46-0.16c0.33-0.26,0.38-0.73,0.13-1.05
		C3.09,7.51,2.34,6.31,1.73,5.06C1.27,4.1,1.56,2.92,2.42,2.24l0.7-0.54c0.35-0.28,0.85-0.25,1.15,0.04
		C4.75,2.21,5.2,2.72,5.59,3.26c0.27,0.36,0.16,0.78,0.03,1.06L5.2,5.22C4.96,5.74,4.89,6.3,4.98,6.86
		c0.07,0.41,0.46,0.69,0.86,0.62c0.41-0.07,0.69-0.45,0.62-0.86c-0.04-0.26-0.01-0.53,0.1-0.77l0.42-0.9
		C7.41,4.04,7.34,3.1,6.8,2.36C6.36,1.77,5.86,1.2,5.32,0.67C4.48-0.15,3.14-0.22,2.2,0.52L1.5,1.06c-1.42,1.1-1.89,3.06-1.12,4.66
		C1.04,7.06,1.84,8.35,2.78,9.55z"/></svg>
